X:1
T:Ne bell'or
T:Ne bell'or
T:Giovanni Ghizzolo
C:Giovanni Ghizzolo
%%score [ 1 2 ] { 3 | 4 }
L:1/8
Q:1/4=120
M:6/2
K:C
V:1 treble nm="Soprano" snm="S"
V:2 bass nm="Bass" snm="B"
V:3 treble nm="MusicXML Part"
V:4 bass 
V:1
"^Source: Madrigali et Arie---Libro secondo---Venetia---A.Raverij---1609.\nEditor: André Vierendeels (09/12/09)\nContinuo: André Vierendeels" d8 B4 e8 c4 | %1
w: Ne bell'- or de|
w: Ec- co sou- ra'er-|
w: A te l'pra- to'el|
w: Non di- ro co-|
 d8 d4"^ARIA" e8 e4 | d8 c4 B8 A4 | A8 A4 G8 G4 :: B8 c4 d8 d4 | d8 ^c4 d8 d4 | A8 B4 c8 c4 | %7
w: rag- gi'es- ti- vi|l'au- ra'ho- mai li-|be- ra spi- ri.|Tem- pri l'on- da'ai|cal- di- ri- vi|l'au- ra des- t'a|
w: bo- so let- to|io mi giac- co'e-|gro'e lan- guen- te.|Au- ra'i t'a- pro|per di- let- to|l'ar- sa fron- t'el|
w: pin s'in- chi- na|per te vien l'a-|er piu dol- ce.|Scher- z'a te l'on-|da ma- ri- na|te d'an- gel- l'il|
w: me se- re- ne|fai le te- ne-|bre del co- re|Ta- ce- ro com'|hai le pie- ne|di- or l'a- li'an-|
 B8 B4 A8 A4 | c8 d4 e8 c4 | d8 d4 e8 e4 | d8 c4 B8 A4 | A8 A4 G8 G4 :: G8 A4 B8 G4 | %13
w: miei sos- pi- ri|es- ca fuor da|quel- lo spe- co|che rin- chiu de'il|mio cor se- co,|che rin- chiu de'il|
w: sen do- len- te|deh' qui vo- la'in-|tor- no'al- quan- to|el' lu- dor m'as-|ciu- ga'el pian- to|el' lu- dor m'as-|
w: can- to mol- ce|tu le vai mi-|sta ve- lo- ce|ne la piu- ma'e|ne la vo- ce,|ne la piu ma'e|
w: zi d'a- mo- re|poi che sei del|pri- mo rag- gio|poi che sei nun-|zia di Mag- gio,|poi che sei nun-|
 A8 A4 G8 G4 :| %14
w: mio cor se- co.|
w: cui- ga'el' pian- to.|
w: ne- la vo- ce.-|
w: zia di Mag- gio.|
V:2
 G,8 G,4 C,8 C,4 | F,8 G,4 C,8 C,4 | G,,8 A,,4 B,,8 C,4 | D,8 D,4 G,,8 G,,4 :: G,8 G,4 G,8 ^F,4 | %5
w: Ne bell'- or de|rag- gies- ti- vi|l'au- ra'ho- mai li-|be- ra spi- ri.|Tem- pri l'on- da'ai|
w: Ec- co sou- ra'er-|bo- so let- to|io mi giac- co'e|gro'e lan- guen- te.|Au- ra'i t'a- pro|
w: ||||Scher- z'a te l'on-|
w: Non di- ro co-|me se- re- ne|fai le te- ne-|bre del co- re.|Ta- ce- ro com'|
w: A te l'pra- to'el|pin s'in- chi- na|per te vien l'a-|er piu dol- ce.||
 G,8 A,4 D,8 D,4 | D,8 B,,4 A,,8 A,,4 | D,8 E,4 A,,8 A,,4 | A,8 B,4 C8 E,4 | F,8 G,4 C,8 C,4 | %10
w: cal- di ri- vi|l'au- ra des- t'a|miei sos- pi- ri|es- ca fuor da|quel- lo spe- co|
w: per di- let- to|l'ar- sa fron- t'el|sen do- len- te|deh' qui vo- la'un-|tor- no'al quan- to|
w: da ma- ri- na|te d'an- gel- l'il|can- to mol- ce|tu le vai mi-|sta ve- lo- ce|
w: hai le ie- ne|di or l'a- li'an-|zi d'a- mo- re|poi che sei del|pri- mo rag- gio|
w: |||||
 G,,8 A,,4 B,,8 C,4 | D,8 D,4 G,,8 G,,4 :: G,8 F,4 E,8 B,,4 | C,8 D,4 G,,8 G,,4 :| %14
w: che rin- chiu de'il|mio cor se- co,|che rin- chiu de'il|mio cor se- co.|
w: el' lu- dor m'as-|ciu- ga'el pian- to|el' lu- dor m'as-|cui- ga'el pian- to.|
w: ne la piu m'a'e|ne la vo- ce,|ne la piu ma'e|ne la vo- ce.|
w: poi che sei nun-|zia di Mag- gio,|poi che sei nun-|zia di Mag- gio.|
w: ||||
V:3
 [GBd]12 [EGc]12 | [Ad]8 [DG]4 [EGc]12 | [GBd]8 [Ac]4 [DGB]8 [Ac]4 | [^FA]12 [DGB]12 :: %4
 [GBd]8 [Gc]4 [DG]8 ^F4 | [DG]8 [Ac]4 [DA]12 | [^FA]8 [GB]4 [EAc]12 | [DB]8 [EB]4 [EA]12 | %8
 [Ec]8 [GB]4 [Gc]12 | [FAd]8 [GBd]4 [EGc]12 | [GBd]8 [Ac]4 [GB]8 [EA]4 | [^FA]12 [DGB]12 :: %12
 [DGB]8 [FAd]4 [EGB]8 [DG]4 | [CEG]8 [^FA]4 [DGB]12 :| %14
V:4
 G,8 G,4 C,8 C,4 | F,8 G,4 C,8 C,4 | G,,8 A,,4 B,,8 C,4 | D,8 D,4 G,,8 G,,4 :: G,8 G,4 G,8 ^F,4 | %5
 G,8 A,4 D,8 D,4 | D,8 B,,4 A,,8 A,,4 | D,8 E,4 A,,8 A,,4 | A,8 B,4 C8 E,4 | %9
 F,8 G,4 C,8"^Note: original keys : Ut1st, Fa 4rth." C,4 | G,,8 A,,4 B,,8 C,4 | %11
 D,8 D,4 G,,8 G,,4 :: G,8 F,4 E,8 B,,4 | C,8 D,4 G,,8 G,,4 :| %14

